gtk/icons/oomox-purple-spice/apps/16/dde-introduction.svg

<svg xmlns="http://www.w3.org/2000/svg" width="16" height="16" version="1.1">
 <defs>
  <style id="current-color-scheme" type="text/css">
   .ColorScheme-Text { color:#dadada; } .ColorScheme-Highlight { color:#5294e2; }
  </style>
  <linearGradient id="arrongin" x1="0%" x2="0%" y1="0%" y2="100%">
   <stop id="stop3" offset="0%" style="stop-color:#dd9b44"/>
   <stop id="stop5" offset="100%" style="stop-color:#ad6c16"/>
  </linearGradient>
  <linearGradient id="aurora" x1="0%" x2="0%" y1="0%" y2="100%">
   <stop id="stop8" offset="0%" style="stop-color:#09D4DF"/>
   <stop id="stop10" offset="100%" style="stop-color:#9269F4"/>
  </linearGradient>
  <linearGradient id="fitdance" x1="0%" x2="0%" y1="0%" y2="100%">
   <stop id="stop13" offset="0%" style="stop-color:#1AD6AB"/>
   <stop id="stop15" offset="100%" style="stop-color:#329DB6"/>
  </linearGradient>
  <linearGradient id="oomox" x1="0%" x2="0%" y1="0%" y2="100%">
   <stop id="stop18" offset="0%" style="stop-color:#a599e9"/>
   <stop id="stop20" offset="100%" style="stop-color:#2d2b55"/>
  </linearGradient>
  <linearGradient id="rainblue" x1="0%" x2="0%" y1="0%" y2="100%">
   <stop id="stop23" offset="0%" style="stop-color:#00F260"/>
   <stop id="stop25" offset="100%" style="stop-color:#0575E6"/>
  </linearGradient>
  <linearGradient id="sunrise" x1="0%" x2="0%" y1="0%" y2="100%">
   <stop id="stop28" offset="0%" style="stop-color:#FF8501"/>
   <stop id="stop30" offset="100%" style="stop-color:#FFCB01"/>
  </linearGradient>
  <linearGradient id="telinkrin" x1="0%" x2="0%" y1="0%" y2="100%">
   <stop id="stop33" offset="0%" style="stop-color:#b2ced6"/>
   <stop id="stop35" offset="100%" style="stop-color:#6da5b7"/>
  </linearGradient>
  <linearGradient id="60spsycho" x1="0%" x2="0%" y1="0%" y2="100%">
   <stop id="stop38" offset="0%" style="stop-color:#df5940"/>
   <stop id="stop40" offset="25%" style="stop-color:#d8d15f"/>
   <stop id="stop42" offset="50%" style="stop-color:#e9882a"/>
   <stop id="stop44" offset="100%" style="stop-color:#279362"/>
  </linearGradient>
  <linearGradient id="90ssummer" x1="0%" x2="0%" y1="0%" y2="100%">
   <stop id="stop47" offset="0%" style="stop-color:#f618c7"/>
   <stop id="stop49" offset="20%" style="stop-color:#94ffab"/>
   <stop id="stop51" offset="50%" style="stop-color:#fbfd54"/>
   <stop id="stop53" offset="100%" style="stop-color:#0f83ae"/>
  </linearGradient>
  <linearGradient id="cyberneon" x1="0%" x2="0%" y1="0%" y2="100%">
   <stop id="stop56" offset="0" style="stop-color:#0abdc6"/>
   <stop id="stop58" offset="1" style="stop-color:#ea00d9"/>
  </linearGradient>
 </defs>
 <path fill="url(#oomox)" class="ColorScheme-Text" d="M 11.017,1.38 C 10.098,0.961 9.076,0.727 8,0.727 7.697,0.727 7.399,0.746 7.106,0.781 6.024,2.278 5.463,4.709 5.508,6.198 c 0,0 -0.071,2.213 1.445,2.998 0,0 1.364,0.597 2.292,-1.335 0,0 0.639,-1.091 0.379,-3.556 0,0 0.249,0.044 0.277,0.083 0.028,0.039 0.549,1.898 0.183,3.463 0,0 -0.337,1.84 -1.994,2.26 C 6.433,10.532 5.142,9.514 4.266,8.556 3.616,7.844 2.651,5.938 2.172,3.649 1.265,4.862 0.727,6.368 0.727,8 c 0,1.133 0.259,2.204 0.721,3.16 1.59,0.473 5.707,1.419 8.321,-0.497 1.721,-1.261 1.499,-3.282 1.499,-3.282 -0.029,-1.536 -0.964,-3.063 -0.964,-3.063 3.638,3.291 1.488,6.948 1.488,6.948 -0.999,2.039 -3.048,3.345 -4.845,3.931 0.344,0.05 0.695,0.076 1.053,0.076 4.017,0 7.273,-3.256 7.273,-7.273 0,-1.724 -0.6,-3.308 -1.603,-4.555 -0.357,0.025 -0.772,0.039 -1.203,0.025 0,0 -1.936,0.091 -3.021,0.632 0,0 -0.809,0.361 -1.618,0.973 0,0 -0.172,0.086 -0.164,0.401 0.007,0.315 -0.165,1.153 -0.738,1.644 0,0 -0.409,0.21 -0.204,0.512 0,0 0.276,0.401 0.665,-0.021 0,0 1.004,-1.032 1.065,-2.696 0,0 0.318,-0.272 0.819,-0.351 0,0 0.093,2.496 -1.146,3.749 0,0 -1.179,1.284 -1.557,-0.621 0,0 -0.461,-1.815 1.915,-3.971 0,0 1.591,-1.588 2.534,-2.341 z M 8,16 C 3.582,16 0,12.418 0,8 0,3.582 3.582,0 8,0 c 4.418,0 8,3.582 8,8 0,4.418 -3.582,8 -8,8 z"/>
</svg>

<svg xmlns="http://www.w3.org/2000/svg" style="isolation:isolate" width="16" height="16" viewBox="0 0 16 16">
 <defs>
  <style id="current-color-scheme" type="text/css">
   .ColorScheme-Text { color:#dadada; } .ColorScheme-Highlight { color:#5294e2; }
  </style>
  <linearGradient id="arrongin" x1="0%" x2="0%" y1="0%" y2="100%">
   <stop offset="0%" style="stop-color:#dd9b44; stop-opacity:1"/>
   <stop offset="100%" style="stop-color:#ad6c16; stop-opacity:1"/>
  </linearGradient>
  <linearGradient id="aurora" x1="0%" x2="0%" y1="0%" y2="100%">
   <stop offset="0%" style="stop-color:#09D4DF; stop-opacity:1"/>
   <stop offset="100%" style="stop-color:#9269F4; stop-opacity:1"/>
  </linearGradient>
  <linearGradient id="fitdance" x1="0%" x2="0%" y1="0%" y2="100%">
   <stop offset="0%" style="stop-color:#1AD6AB; stop-opacity:1"/>
   <stop offset="100%" style="stop-color:#329DB6; stop-opacity:1"/>
  </linearGradient>
  <linearGradient id="oomox" x1="0%" x2="0%" y1="0%" y2="100%">
   <stop offset="0%" style="stop-color:#a599e9; stop-opacity:1"/>
   <stop offset="100%" style="stop-color:#2d2b55; stop-opacity:1"/>
  </linearGradient>
  <linearGradient id="rainblue" x1="0%" x2="0%" y1="0%" y2="100%">
   <stop offset="0%" style="stop-color:#00F260; stop-opacity:1"/>
   <stop offset="100%" style="stop-color:#0575E6; stop-opacity:1"/>
  </linearGradient>
  <linearGradient id="sunrise" x1="0%" x2="0%" y1="0%" y2="100%">
   <stop offset="0%" style="stop-color: #FF8501; stop-opacity:1"/>
   <stop offset="100%" style="stop-color: #FFCB01; stop-opacity:1"/>
  </linearGradient>
  <linearGradient id="telinkrin" x1="0%" x2="0%" y1="0%" y2="100%">
   <stop offset="0%" style="stop-color: #b2ced6; stop-opacity:1"/>
   <stop offset="100%" style="stop-color: #6da5b7; stop-opacity:1"/>
  </linearGradient>
  <linearGradient id="60spsycho" x1="0%" x2="0%" y1="0%" y2="100%">
   <stop offset="0%" style="stop-color: #df5940; stop-opacity:1"/>
   <stop offset="25%" style="stop-color: #d8d15f; stop-opacity:1"/>
   <stop offset="50%" style="stop-color: #e9882a; stop-opacity:1"/>
   <stop offset="100%" style="stop-color: #279362; stop-opacity:1"/>
  </linearGradient>
  <linearGradient id="90ssummer" x1="0%" x2="0%" y1="0%" y2="100%">
   <stop offset="0%" style="stop-color: #f618c7; stop-opacity:1"/>
   <stop offset="20%" style="stop-color: #94ffab; stop-opacity:1"/>
   <stop offset="50%" style="stop-color: #fbfd54; stop-opacity:1"/>
   <stop offset="100%" style="stop-color: #0f83ae; stop-opacity:1"/>
  </linearGradient>
  <clipPath id="_clipPath_Jxh5QkXHjZwucxm2TozDPClhTIROlQCZ">
   <rect width="16" height="16"/>
  </clipPath>
 </defs>
 <g clip-path="url(#_clipPath_Jxh5QkXHjZwucxm2TozDPClhTIROlQCZ)">
  <rect style="fill:url(#oomox)" class="ColorScheme-Text" width="4.625" height="3.594" x="17.09" y="-.09" transform="matrix(1,0,0,1,0,0)"/>
  <path style="fill:url(#oomox)" class="ColorScheme-Text" d="M 11.017 1.38 C 10.098 0.961 9.076 0.727 8 0.727 C 7.697 0.727 7.399 0.746 7.106 0.781 C 6.024 2.278 5.463 4.709 5.508 6.198 C 5.508 6.198 5.437 8.411 6.953 9.196 C 6.953 9.196 8.317 9.793 9.245 7.861 C 9.245 7.861 9.884 6.77 9.624 4.305 C 9.624 4.305 9.873 4.349 9.901 4.388 C 9.929 4.427 10.45 6.286 10.084 7.851 C 10.084 7.851 9.747 9.691 8.09 10.111 C 6.433 10.532 5.142 9.514 4.266 8.556 C 3.616 7.844 2.651 5.938 2.172 3.649 C 1.265 4.862 0.727 6.368 0.727 8 C 0.727 9.133 0.986 10.204 1.448 11.16 C 3.038 11.633 7.155 12.579 9.769 10.663 C 11.49 9.402 11.268 7.381 11.268 7.381 C 11.239 5.845 10.304 4.318 10.304 4.318 C 13.942 7.609 11.792 11.266 11.792 11.266 C 10.793 13.305 8.744 14.611 6.947 15.197 C 7.291 15.247 7.642 15.273 8 15.273 C 12.017 15.273 15.273 12.017 15.273 8 C 15.273 6.276 14.673 4.692 13.67 3.445 C 13.313 3.47 12.898 3.484 12.467 3.47 C 12.467 3.47 10.531 3.561 9.446 4.102 C 9.446 4.102 8.637 4.463 7.828 5.075 C 7.828 5.075 7.656 5.161 7.664 5.476 C 7.671 5.791 7.499 6.629 6.926 7.12 C 6.926 7.12 6.517 7.33 6.722 7.632 C 6.722 7.632 6.998 8.033 7.387 7.611 C 7.387 7.611 8.391 6.579 8.452 4.915 C 8.452 4.915 8.77 4.643 9.271 4.564 C 9.271 4.564 9.364 7.06 8.125 8.313 C 8.125 8.313 6.946 9.597 6.568 7.692 C 6.568 7.692 6.107 5.877 8.483 3.721 C 8.483 3.721 10.074 2.133 11.017 1.38 Z M 8 16 C 3.582 16 0 12.418 0 8 C 0 3.582 3.582 0 8 0 C 12.418 0 16 3.582 16 8 C 16 12.418 12.418 16 8 16 Z"/>
 </g>
</svg>
